X:55
T:Paddy O’Carrol. 2voices. Dix.55
M:6/8
L:1/8
Q:1/4=115
S:Anon. MS dated 1811, from Dixon collection, Holton le Moor, Lincs.
C:Inscription on page “Islington Feby 21st 1811″
R:jig
N:Repeat signs added at start
O:England;Lincolnshire;Holton le Moor
Z:vmp.R.Greig 2012 <http://www.village-music-project.org.uk>
K:D
[V:1]|:A/G/|FDD FDD|F>GF F>ED|AFF dFF|E>FEE2A/G/|!
[V:2]|:z|D,,2D,D,,2D,|D,,2D,D,,2D,|D,,2D,D,,2D,|A,,2A,A,,2z|!
[V:1]FDD FDD|F>GF F>ED|AFF dFF|D>EDD3:|!
[V:2]D,F,A, D,F,A,|D,F,A, D,F,A,|D,F,A, D,F,A,|D,2A,,D,,3:|!
[V:1]|:a/g/|fdd ecc|BdB A>GF|fda eca|dB^ga2{b}a/g/|!
[V:2]|:z|D,2DC,2C|B,,2B,A,,2A,|[D3D,3][C3C,3]|[B,3B,,3][A,3A,,3]”q rest omitted”|!
[V:1]fdd ecc|BdB A>GF|AFF dFF|D>ED D2:|!
[V:2]D,2DC,2C|B,,2B,A,,2A,|D,,2D,D,,2D,|D,,F,,A,,D,2:|!
[V:1]|:z[FD][FD] d [FD][FD]|f [FD][FD] F>ED|z[FD][FD] d [FD][FD]|[EC]>FE [E3C3]|!
[V:2]|:[D,D,,]z2 z3|z3[D,3D,,3]|[D,D,,]z2z3|A,E,C,A,,3|!
[V:1]z[FD][FD] d [FD][FD]|f [FD][FD] [FD]>ED|z[FD][FD] d [FD][FD]|D>ED D3:|!
[V:2][D,D,,]z2z3|[D,D,,]z2z3|[D,D,,]z2z3|D,,F,,A,,D3:|!
[V:1]|:z[dAF][dAF]z [dAF][dAF]|z[dAF][dAF]z [dAF][dAF]|z[dAF][dAF]z [dAF][dAF]|[ec]>[fd][ec] [ec]z2|!
[V:2]|:[D,3D,,3] [D,3D,,3]|[A,2A,,2]z [F,2F,,2]z|[A,2A,,2]z [D2D,2]z|[A,2A,,2][A,A,,] [A,A,,]z2|!
[V:1]fdd ecc|BdB A>GF|AFF dFF|D>EDD3:|!
[V:2][D3D,3][C3C,3]|[B,3B,,3][A,3A,,3]|[D,3D,,3][D,3D,,3]|[D,2D,,2][D,D,,][D,3D,,3]:|

